X:134
T:Old Favorite
M:12/8
L:1/8
R:Jig
K:G
"G"B3 BAB| "(Emi)"dBA "(C)"GBc|"G"ded d2B | "C" ded "D"B2 A|
"G"B3 BAB| dBA "G/B"GBc | "C"ded "D"cBA | "G"G3 G2 z:|
"G"g3 "D"fgf | "C"efe "G"edB | "G"ded d2B | "C"ded "D"B2 d|
"Emi"g3  "D" f3 | "C"efe "G"edB|
1 "C"dge "D"dBA | "G"G3 GBd:|
2 "G (or Dsus)"dge dge | " Dsus"dge dBA:||
